X:1
T:6 Lieder, Op.1
T:Schmetterling
T:4. Schmetterling
T:Peter Cornelius
T:Peter Cornelius
T:6 Lieder, Op.1
T:OpenScore (CC0)
T:OpenScore (CC0)
T:OpenScore (CC0)
C:Peter Cornelius
Z:Peter Cornelius
Z:OpenScore (CC0)
%%score ( 1 2 ) { ( 3 5 ) | ( 4 6 ) }
L:1/8
Q:1/4=80
M:2/4
K:F
V:1 treble nm="Voice"
V:2 treble 
V:3 treble nm="Piano"
V:5 treble 
V:4 bass 
V:6 bass 
V:1
"^Innig, ziemlich bewegt" A | c2 F3/2 G/ | G2 A A |!<(! B A!<)! d3/2 c/ | c2 =B B | c2 _B A | %6
w: 1. Wer|hat's doch durch-|schau- et, dem|Schmet- ter- ling ver-|trau- et: dass|Ho- nig- be-|
w: 2. O,|woll' ihn nicht|ha- schen! Ver-|gönn' im Flug', im|ra- schen, ihm|flüch- ti- ges|
w: 3. Und|wenn er be-|rau- schet dann|Lieb' mit Lieb' ver-|tau- schet, wo|sehn- suchts- voll|
 A2 G F | c B!<(! D3/2 E/!<)! | E3!p! A | A2 D3/2 E/ | E2 ^F z/"^cresc." _B/ | (B A) G3/2 =F/ | %12
w: tau- et ein|Blüm- chen du, mein|Lieb? Dass|er dich um-|schwe- bet, um|dich im Flu- ge|
w: Na- schen, er|küsst dich ja nicht|wund! Dann|prahlt wohl der|Lo- se zur|ei- fer- sücht'- gen|
w: lau- schet manch'|Blüm- lein auf der|Wies': Dann|mö- gest du's|lei- den, dass|ich _ mich be-|
 F2 E !>!c | c2 A !>!d | (!>!d"^dim."c) B A | (AG) F E |!p! F2 z2 | z4 | z4 | z4 | z2 z |] %21
w: be- bet und|Ho- nig er-|stre- * bet, der|flat- * tern- de|Dieb!|||||
w: Ro- se: wie|süss es sich|ko- * se an|dei- nem ro- ten|Mund.|||||
w: schei- den am|Plätz- chen mag|wei- * den, das|se- lig er ver-|liess.|||||
V:2
 x | x4 | x4 | x4 | x4 | x4 | x4 | x4 | x4 | x4 | x4 | BA x2 | x4 | x4 | x4 | A G x2 | x4 | x4 | %18
 x4 | x4 | x3 |] %21
V:3
!mp! .[FA] | ([Ac]2 [CF]>[EG]) | ([EG]2 [FA])([FA] |!<(! [FB][FA]!<)![Fd]>[Fc]) | (c2 =B)B | %5
 (c2 _B).A | (A2 G).F | (F2!<(! D>!<)!D) | (D2!mp! ^C)!p!C | D2 ([A,D]>[^CE]) | %10
 ([^CE]2 [D^F])!>![D_B] | (BAG>G) | G2 E!>!c | [Fc]2 A!>!d |!<(! (d!<)!c) (.B.A) | %15
 (AG) (.[B,F].[B,E]) | F2!pp! .[fa-].[ac'] | (d'2 (.d'.d') |!<(! (f'2 c')a!<)! | %19
!p!!<(! (g2!<)!!>(! b>!>)!a |!p! a2)) z |] %21
V:4
 .C | (F,2 A,>C) | (C2 F,)(_E | DCB,>A,) | G,3 F, | (E,2 G,).F, | B,2- B,.A, | %7
 (G,2 [B,,G,]>[B,,G,]) | [A,,G,]3 [A,,G,] | [D,^F,]2 (^F,>A,) | (A,2 D,)G, | (G,A,B,>=B,) | %12
 C3 _B, | A,2 F,B, | B,A, DC | B,2 C,2 | F,2[K:treble] (.c.f) |"^duftig" d2 (.f.d) | %18
 ([F-c]2 [Ff])[Fc] | (B2 Gc | c2) z |] %21
V:5
 x | x4 | x4 | x4 | F3 G | (G2 E).F | D2- D.D | D2 x2 | x4 | x4 | x4 | D2 D>=F | (F2 E)E | x2 FF | %14
 F2 !>!F2 | D2 x2 | A,2 x2 | (c'bab) | ((b2 a)f) | (fede | f2) x |] %21
V:6
 x | x4 | x4 | x4 | x4 | x4 | x4 | x4 | x4 | x4 | x4 | x4 | x4 | x4 | x4 | x4 | %16
 x2[K:treble] (.F.F) | (F2 FF | x4 | C2 C2 | F2) x |] %21

